static/assets/img/icons/theme/media/volume-full.svg

<svg height="24" viewBox="0 0 24 24" width="24" xmlns="http://www.w3.org/2000/svg"><g fill="none" fill-rule="evenodd"><path d="m0 0h24v24h-24z" opacity="0"/><g fill="#000"><path d="m16.3155516 16.1481997c-.3615248.2021699-.8184897.0729871-1.0206596-.2885377-.2021698-.3615249-.0729871-.8184897.2885378-1.0206596 1.0211081-.5710183 1.6665702-1.6480695 1.6665702-2.8390024 0-1.1821584-.635904-2.25243141-1.6451225-2.82690139-.3599796-.20490856-.4856896-.66284094-.280781-1.0228206.2049085-.35997966.6628409-.48568963 1.0228206-.28078107 1.4731763.83856527 2.4030829 2.40366626 2.4030829 4.13050306 0 1.7396897-.9438406 3.3146305-2.4344484 4.1481997zm.4732264 3.7410308c-.3732706.1795605-.8214287.0225276-1.0009893-.3507429-.1795605-.3732706-.0225276-.8214287.350743-1.0009893 2.492701-1.1991055 4.1114683-3.7222593 4.1114683-6.5374983 0-2.78828182-1.5877637-5.29137698-4.0438923-6.50455656-.3713798-.18343923-.5237357-.63320889-.3402964-1.00458865.1834392-.37137975.6332088-.52373565 1.0045886-.34029642 2.9631315 1.46360847 4.8796001 4.48490392 4.8796001 7.84944163 0 3.3971108-1.9538409 6.4425397-4.961222 7.8892305z" fill-rule="nonzero" opacity=".3"/><path d="m7 16-3.39223227-.6784465c-.93484839-.1869696-1.60776773-1.0077993-1.60776773-1.9611613v-2.7207844c0-.95336203.67291934-1.77419167 1.60776773-1.96116135l3.39223227-.67844645 3.2928932-3.29289322c.3905243-.39052429 1.0236893-.39052429 1.4142136 0 .1875364.18753638.2928932.44189029.2928932.70710678v13.17157284c0 .5522848-.4477153 1-1 1-.2652165 0-.5195704-.1053568-.7071068-.2928932z"/></g></g></svg>

<svg width="24px" height="24px" viewBox="0 0 24 24" version="1.1" xmlns="http://www.w3.org/2000/svg" xmlns:xlink="http://www.w3.org/1999/xlink">
    <title>Icon For Volume-full</title>
    <g stroke="none" stroke-width="1" fill="none" fill-rule="evenodd">
        <rect opacity="0" x="0" y="0" width="24" height="24"></rect>
        <path d="M16.3155516,16.1481997 C15.9540268,16.3503696 15.4970619,16.2211868 15.294892,15.859662 C15.0927222,15.4981371 15.2219049,15.0411723 15.5834298,14.8390024 C16.6045379,14.2679841 17.25,13.1909329 17.25,12 C17.25,10.8178416 16.614096,9.74756859 15.6048775,9.17309861 C15.2448979,8.96819005 15.1191879,8.51025767 15.3240965,8.15027801 C15.529005,7.79029835 15.9869374,7.66458838 16.3469171,7.86949694 C17.8200934,8.70806221 18.75,10.2731632 18.75,12 C18.75,13.7396897 17.8061594,15.3146305 16.3155516,16.1481997 Z M16.788778,19.8892305 C16.4155074,20.068791 15.9673493,19.9117581 15.7877887,19.5384876 C15.6082282,19.165217 15.7652611,18.7170589 16.1385317,18.5374983 C18.6312327,17.3383928 20.25,14.815239 20.25,12 C20.25,9.21171818 18.6622363,6.70862302 16.2061077,5.49544344 C15.8347279,5.31200421 15.682372,4.86223455 15.8658113,4.49085479 C16.0492505,4.11947504 16.4990201,3.96711914 16.8703999,4.15055837 C19.8335314,5.61416684 21.75,8.63546229 21.75,12 C21.75,15.3971108 19.7961591,18.4425397 16.788778,19.8892305 Z" fill="#000000" fill-rule="nonzero" opacity="0.3"></path>
        <path d="M7,16 L3.60776773,15.3215535 C2.67291934,15.1345839 2,14.3137542 2,13.3603922 L2,10.6396078 C2,9.68624577 2.67291934,8.86541613 3.60776773,8.67844645 L7,8 L10.2928932,4.70710678 C10.6834175,4.31658249 11.3165825,4.31658249 11.7071068,4.70710678 C11.8946432,4.89464316 12,5.14899707 12,5.41421356 L12,18.5857864 C12,19.1380712 11.5522847,19.5857864 11,19.5857864 C10.7347835,19.5857864 10.4804296,19.4804296 10.2928932,19.2928932 L7,16 Z" fill="#000000"></path>
    </g>
</svg>
